<?xml version="1.0" encoding="UTF-8"?>
<map version="1.10" tiledversion="1.11.2" orientation="orthogonal" renderorder="right-down" width="50" height="50" tilewidth="16" tileheight="16" infinite="0" nextlayerid="7" nextobjectid="2">
 <tileset firstgid="1" name="sin texturas" tilewidth="16" tileheight="16" tilecount="0" columns="5">
  <image source="../images/stone.png" width="88" height="96"/>
 </tileset>
 <tileset firstgid="1" name="sin textura" tilewidth="16" tileheight="16" tilecount="64" columns="8">
  <image source="../images/tileset_1bit.png" width="128" height="128"/>
 </tileset>
 <layer id="4" name="ground" width="50" height="50">
  <data encoding="csv">
38,37,38,39,29,30,40,40,30,31,64,30,38,64,64,64,64,64,64,64,64,64,64,64,64,64,64,64,64,64,40,32,40,31,64,7,64,37,37,37,39,40,40,31,64,29,64,39,31,40,
64,30,29,39,39,32,29,37,64,64,64,64,64,37,40,37,37,38,38,38,38,29,39,39,31,64,64,64,64,64,64,64,38,29,29,64,32,31,64,64,30,29,39,7,64,30,64,64,37,32,
7,32,32,40,31,29,64,64,37,64,64,64,32,64,40,31,29,40,32,31,38,40,64,7,64,30,64,40,64,64,31,7,64,64,64,7,30,40,30,37,37,37,29,38,64,64,64,7,64,30,
32,32,64,39,64,64,38,39,64,7,64,64,64,39,29,40,37,7,39,30,32,30,64,64,39,7,39,37,64,64,64,64,64,64,64,64,64,31,64,40,30,30,7,64,64,64,64,64,37,29,
37,38,40,31,64,31,37,64,38,64,37,64,64,40,40,32,64,64,7,38,37,64,64,40,30,64,64,64,39,37,64,32,64,29,39,64,39,64,64,64,64,64,64,64,64,31,64,64,32,37,
40,38,64,64,37,7,7,64,64,64,38,31,40,64,32,30,30,30,64,29,32,64,7,64,64,7,64,39,31,39,64,64,64,40,64,64,64,64,64,40,30,64,37,37,64,30,64,64,40,7,
30,31,64,31,37,29,64,64,64,64,64,64,64,64,64,64,64,64,64,64,64,64,64,64,64,64,64,64,64,64,64,64,64,64,30,38,64,32,32,64,38,38,37,30,64,30,64,64,38,30,
38,64,31,29,7,64,64,31,7,30,64,38,7,40,29,64,32,64,30,64,64,64,64,64,64,64,64,64,64,64,64,64,64,64,64,29,7,64,37,64,64,30,64,30,64,37,64,31,64,31,
64,37,64,64,64,64,30,29,40,7,38,37,38,31,64,64,7,64,64,7,31,7,64,64,38,30,31,64,64,64,64,64,64,64,64,64,64,64,64,64,38,31,31,40,64,37,64,64,64,29,
39,37,64,29,37,64,40,37,38,64,38,29,29,64,29,64,64,64,64,64,64,64,64,64,64,64,64,32,40,64,64,64,64,64,64,64,64,64,64,64,64,38,30,37,64,37,38,64,40,64,
7,64,32,7,64,38,40,29,30,64,64,64,64,64,64,64,64,64,64,64,64,64,64,64,64,64,64,64,64,30,32,64,64,64,64,37,37,64,64,64,64,64,64,64,64,64,30,64,7,64,
64,40,32,30,64,32,39,64,64,32,64,64,64,64,64,64,64,64,64,64,64,64,64,64,64,64,64,64,7,31,64,64,64,7,64,31,37,64,64,64,30,64,64,64,64,64,64,64,30,64,
39,31,39,64,64,64,64,37,64,30,64,64,64,64,64,64,64,64,64,64,64,64,32,64,64,64,7,64,64,29,64,64,64,30,64,37,29,64,64,64,38,40,64,64,64,64,64,64,32,64,
32,40,37,64,64,32,7,38,64,64,64,39,64,64,64,64,64,64,64,64,38,39,38,64,64,7,64,64,64,64,64,64,64,29,32,32,37,64,64,64,38,31,64,40,64,38,64,64,38,64,
32,37,39,64,64,64,64,64,64,29,31,29,64,64,64,64,32,30,7,64,64,64,38,64,64,30,37,39,38,64,64,64,64,7,40,38,29,64,64,64,30,39,7,31,64,64,64,64,39,64,
7,40,64,38,64,64,64,64,64,64,64,64,64,64,64,64,64,31,40,37,64,40,30,64,64,37,30,30,40,30,64,64,64,38,31,32,64,64,64,64,37,38,31,39,64,64,64,64,64,64,
40,40,64,39,64,64,64,64,64,64,30,64,64,32,64,64,64,64,64,64,64,64,29,64,64,29,40,31,40,38,64,64,64,64,32,64,29,64,64,7,7,38,32,37,32,64,64,37,64,39,
30,64,64,64,32,64,64,64,39,30,64,64,7,64,64,64,38,64,38,64,64,64,64,64,64,30,31,29,31,7,64,64,40,64,64,64,64,64,64,29,7,39,40,64,38,64,64,38,64,29,
31,64,64,64,64,64,7,37,40,7,64,64,30,64,64,32,40,29,7,31,40,64,64,64,64,7,38,31,31,7,64,64,64,64,64,30,32,64,64,38,40,29,32,29,29,64,64,29,64,7,
64,64,64,64,64,64,30,29,37,40,64,38,39,64,64,29,7,30,64,32,29,64,64,64,64,7,30,38,38,7,64,64,64,64,64,64,64,64,64,38,37,40,7,37,40,64,64,30,64,30,
64,7,64,64,31,64,37,31,29,64,64,64,39,64,64,37,64,30,30,37,29,30,64,64,39,7,32,64,31,7,64,64,64,29,64,64,64,64,64,31,31,32,31,7,40,64,64,64,64,64,
64,64,64,64,29,64,40,30,38,7,64,64,64,64,64,64,64,64,64,64,64,7,64,64,64,37,64,31,39,64,40,64,64,40,64,64,64,7,64,38,30,30,32,29,37,64,64,64,64,7,
64,64,64,64,32,37,64,30,7,39,64,64,39,40,64,64,32,38,31,37,38,64,64,64,64,64,7,39,64,32,30,64,37,29,39,64,64,7,64,30,32,30,40,31,39,64,7,64,64,30,
64,37,64,64,29,64,64,64,39,7,64,31,64,64,64,64,7,64,37,38,32,40,39,64,64,64,64,64,64,30,37,64,32,39,64,64,64,64,32,64,37,29,31,32,32,64,39,64,64,30,
64,30,64,64,40,7,64,64,39,64,31,7,64,64,64,64,7,64,32,32,29,7,37,64,64,64,64,64,64,32,64,64,40,64,64,64,64,64,32,39,37,32,38,64,64,64,7,64,39,31,
64,64,64,64,64,32,30,64,39,64,38,37,64,64,64,64,39,40,32,39,40,37,64,64,64,64,64,31,64,64,64,64,64,39,64,64,64,64,38,38,37,40,40,39,38,64,64,64,39,64,
30,64,64,64,64,37,29,31,64,64,30,31,64,38,64,64,40,37,31,31,39,7,64,64,38,64,64,39,7,64,64,64,30,64,64,7,64,64,7,37,32,39,37,32,64,31,64,64,7,38,
64,30,64,30,64,39,40,38,64,64,7,64,64,64,38,64,64,64,29,38,64,64,64,64,64,64,64,64,64,64,29,64,64,64,64,40,64,38,29,31,31,38,37,64,64,30,64,64,37,30,
64,7,64,39,38,64,39,7,31,64,64,64,38,37,32,64,64,64,64,64,64,64,64,64,64,39,64,64,64,29,64,64,64,64,40,64,64,7,40,39,38,32,7,29,64,32,64,64,40,30,
64,64,64,64,7,37,64,39,39,64,64,64,40,29,30,64,64,64,7,37,39,40,64,64,64,38,37,64,64,64,30,64,64,64,64,64,64,7,31,29,64,30,31,30,64,31,64,32,39,29,
7,64,64,64,40,7,64,64,38,64,38,64,7,31,64,31,64,64,29,30,64,30,64,64,64,29,7,64,64,31,64,64,64,64,37,64,64,40,37,31,31,40,29,64,39,64,64,40,31,64,
32,29,64,64,64,30,64,64,30,64,39,64,64,64,38,31,64,64,64,30,40,31,64,64,64,38,64,64,39,31,64,7,64,64,31,64,64,64,40,30,31,39,64,64,31,64,64,40,30,64,
7,38,64,64,64,64,40,64,38,64,38,64,38,64,64,32,37,64,38,64,40,31,64,64,64,64,64,64,29,64,64,64,64,29,64,64,38,64,64,32,37,64,64,38,40,64,64,31,7,32,
30,31,64,39,31,64,64,40,64,64,37,64,64,29,64,64,64,64,31,32,64,37,64,64,64,64,64,64,64,64,64,64,64,64,64,64,64,64,64,64,64,30,37,64,31,64,64,31,30,64,
37,7,64,64,7,64,64,64,64,64,31,64,64,40,7,31,39,64,64,64,32,64,64,64,64,39,64,64,64,64,64,64,7,64,64,64,30,37,39,64,30,7,64,30,64,64,64,40,32,64,
29,31,64,64,39,40,37,64,64,64,64,64,64,64,64,64,64,64,64,64,64,64,64,64,31,64,64,64,32,64,64,39,64,64,64,64,39,38,32,64,64,29,31,29,64,38,64,31,37,64,
64,31,64,64,64,64,64,64,64,64,64,64,64,38,37,40,40,37,38,64,64,39,31,64,40,64,37,64,64,64,64,30,64,64,64,39,64,32,39,30,64,29,30,64,64,31,64,32,64,39,
38,64,64,64,30,31,39,32,64,7,64,64,64,64,64,64,7,31,64,64,64,64,64,64,64,64,37,64,64,64,7,64,64,64,37,29,64,64,37,40,64,31,64,64,40,29,64,39,64,31,
32,32,64,64,32,37,31,39,64,40,64,64,64,64,64,7,64,64,64,64,64,64,64,64,64,7,64,64,64,64,64,64,64,31,29,38,29,37,64,32,64,40,64,7,7,38,64,64,64,7,
30,30,64,64,64,40,32,32,64,40,64,31,7,64,64,64,64,64,39,31,64,64,64,64,64,64,64,64,40,64,64,40,64,64,7,38,64,30,32,64,64,64,64,29,30,32,64,64,39,7,
64,40,64,64,64,64,29,64,64,30,64,64,29,30,64,64,64,64,64,39,64,31,31,64,38,64,64,64,64,64,64,30,64,38,30,39,30,38,40,7,64,64,7,31,38,64,30,64,32,64,
30,64,29,64,64,30,64,64,64,31,40,64,39,7,7,31,64,64,64,64,64,64,64,64,64,64,64,29,64,64,32,40,38,30,30,40,30,29,64,64,64,32,32,38,40,64,64,64,64,7,
29,29,64,7,64,38,31,32,64,64,40,64,37,64,39,64,32,31,64,64,64,64,64,64,64,64,64,64,64,7,32,64,39,32,40,7,64,64,7,64,38,64,40,37,64,64,64,64,38,40,
64,30,38,64,64,64,32,7,64,31,64,64,64,64,64,64,64,64,64,32,64,64,64,32,38,64,64,39,32,7,37,64,31,40,30,64,64,64,64,64,64,64,64,64,64,64,64,40,64,31,
40,29,39,29,7,64,39,32,64,39,7,64,64,37,32,40,7,38,37,64,64,32,64,64,64,64,39,7,30,40,7,30,64,37,64,32,64,64,64,64,29,31,31,40,64,40,64,29,64,37,
29,40,29,30,29,64,64,64,64,31,37,29,64,64,39,40,29,7,39,64,29,31,64,64,64,64,64,64,64,64,64,64,64,64,64,64,64,64,37,64,64,31,37,7,38,64,64,37,30,40,
29,31,64,64,64,64,64,64,64,64,29,32,7,64,64,64,64,64,64,64,64,64,29,29,64,64,64,64,64,37,64,64,64,64,64,37,37,7,40,7,32,39,37,40,64,64,64,31,29,40,
37,30,64,64,64,64,64,64,64,39,64,64,64,64,64,64,64,64,39,37,32,40,64,31,38,64,64,64,64,64,64,64,64,64,7,37,31,32,31,37,30,32,40,37,29,64,40,30,37,37,
29,7,30,40,38,39,40,64,64,64,64,64,64,64,64,64,64,64,64,64,64,64,64,64,64,64,34,64,64,64,38,40,31,64,64,64,64,64,64,39,29,32,40,64,64,32,38,38,39,32,
40,29,37,37,64,37,37,40,64,64,64,29,31,32,64,38,40,64,32,30,31,39,30,38,64,64,25,64,40,29,37,40,39,64,37,32,38,30,31,64,64,64,64,7,40,39,29,32,7,37
</data>
 </layer>
 <layer id="3" name="walls" width="50" height="50">
  <data encoding="csv">
0,0,0,0,0,0,0,0,0,0,0,0,0,0,0,0,0,0,0,0,0,0,0,0,0,0,0,0,0,0,0,0,0,0,0,0,0,0,0,0,0,0,0,0,0,0,0,0,0,0,
0,0,0,0,0,0,0,0,0,0,0,0,0,0,0,0,0,0,0,0,0,0,0,0,0,0,0,0,0,0,0,0,0,0,0,0,0,0,0,0,0,0,0,0,0,0,0,0,0,0,
0,0,0,0,0,0,0,0,0,0,0,0,0,0,0,0,0,0,0,0,0,0,0,0,0,0,0,0,0,0,0,0,0,0,0,0,0,0,0,0,0,0,0,0,0,0,0,0,0,0,
0,0,0,0,0,0,0,0,0,0,0,0,0,0,0,0,0,0,0,0,0,0,0,0,0,0,0,0,0,0,0,0,0,0,0,0,0,0,0,0,0,0,0,0,0,0,0,0,0,0,
0,0,0,0,0,0,0,0,0,0,0,0,0,0,0,0,0,0,0,0,0,0,0,0,0,0,0,0,0,0,0,0,0,0,0,0,0,0,0,0,0,0,0,0,0,0,0,0,0,0,
0,0,0,0,0,0,0,0,0,0,0,0,0,0,0,0,0,0,0,0,0,0,0,0,0,0,0,0,0,0,0,0,0,0,0,0,0,0,0,0,0,0,0,0,0,0,0,0,0,0,
0,0,0,0,0,0,0,0,0,0,0,0,0,0,0,0,0,0,0,0,0,0,0,0,0,0,0,0,0,0,0,0,0,0,0,0,0,0,0,0,0,0,0,0,0,0,0,0,0,0,
0,0,0,0,0,0,0,0,0,0,0,0,0,0,0,0,0,0,0,0,0,0,0,0,0,0,0,0,0,0,0,0,0,0,0,0,0,0,0,0,0,0,0,0,0,0,0,0,0,0,
0,0,0,0,0,0,0,0,0,0,0,0,0,0,0,0,0,0,0,0,0,0,0,0,0,0,0,0,0,0,0,0,0,0,0,0,0,0,0,0,0,0,0,0,0,0,0,0,0,0,
0,0,0,0,0,0,0,0,0,0,0,0,0,0,0,0,0,0,0,0,0,0,0,0,0,0,0,0,0,0,0,0,0,0,0,0,0,0,0,0,0,0,0,0,0,0,0,0,0,0,
0,0,0,0,0,0,0,0,0,0,0,0,0,0,0,0,0,0,0,0,0,0,0,0,0,0,0,0,0,0,0,0,0,0,0,0,0,0,0,0,0,12,0,12,12,0,0,0,0,0,
0,0,0,0,0,0,0,0,0,0,0,0,0,0,0,0,0,0,0,0,0,0,0,0,0,0,0,0,0,0,0,0,0,0,0,0,0,0,0,0,0,12,12,12,20,12,0,0,0,0,
12,12,12,12,12,12,12,12,12,12,12,12,12,12,12,12,12,12,12,12,12,12,12,12,12,12,20,20,20,21,21,21,21,21,21,21,21,21,21,20,20,20,20,20,20,12,0,0,0,0,
28,28,28,28,28,28,3,3,0,0,0,0,0,0,0,0,0,0,0,0,0,0,0,0,0,0,0,0,0,0,0,0,0,0,0,0,0,0,0,0,0,0,0,0,0,12,0,0,0,0,
28,28,28,28,28,28,3,0,0,0,0,0,0,0,0,0,0,0,0,0,0,0,0,0,0,0,0,0,0,0,0,0,0,0,0,0,0,0,0,0,0,0,0,0,0,12,0,0,0,0,
28,28,28,28,28,28,21,0,0,0,0,0,0,0,0,0,0,0,0,0,0,0,0,0,0,0,0,0,0,0,0,0,0,0,0,0,0,0,0,0,0,0,0,0,0,12,0,0,0,0,
28,28,28,28,28,28,21,0,0,0,0,0,0,0,0,0,0,0,0,0,0,0,0,0,0,0,0,0,0,0,0,0,0,0,0,0,0,0,0,0,0,0,0,12,12,12,0,0,0,0,
28,28,28,28,28,28,21,0,0,3,3,3,3,3,3,3,3,3,3,3,3,0,0,0,0,0,3,3,3,3,3,3,3,3,0,0,0,0,0,0,0,0,12,12,0,12,0,0,0,0,
28,28,28,28,28,28,21,0,0,3,28,28,28,28,28,28,28,28,28,28,3,3,0,0,0,0,3,28,28,28,28,28,28,3,0,0,0,0,0,0,0,0,0,12,12,12,12,0,0,0,
28,28,28,28,28,28,3,0,0,0,3,28,28,28,28,28,28,28,28,28,28,3,0,0,0,0,3,28,28,28,28,28,28,3,0,0,0,0,0,0,0,0,0,0,0,12,12,12,12,0,
28,28,28,3,3,3,3,0,0,0,3,3,28,28,28,28,28,28,28,28,28,3,0,0,0,0,3,28,28,28,28,28,28,3,0,0,0,0,0,0,0,0,0,0,0,0,12,0,12,0,
3,3,3,3,0,0,0,0,0,0,0,3,3,3,3,3,28,28,28,28,28,3,0,0,0,0,3,28,28,28,28,28,28,3,0,0,0,0,0,0,0,0,0,0,0,0,12,12,12,0,
0,0,0,0,0,0,0,0,0,0,0,0,0,0,0,0,3,3,3,3,3,3,0,0,0,0,3,28,28,28,28,28,28,3,0,0,0,0,0,0,0,0,0,0,0,0,0,12,0,0,
0,0,0,0,0,0,0,0,0,0,0,0,0,0,0,0,0,0,0,0,0,0,0,0,0,0,3,28,28,28,28,28,28,3,0,0,0,0,0,0,0,0,0,0,0,0,0,12,0,0,
0,0,0,0,0,0,0,0,0,0,0,0,0,0,0,0,0,0,0,0,0,0,0,0,0,0,3,28,28,28,28,3,3,3,0,0,0,0,0,0,0,0,0,0,0,0,0,12,0,0,
0,0,0,0,0,0,0,0,0,0,0,0,0,0,0,0,0,0,0,0,0,0,0,0,0,0,3,3,3,3,3,3,0,0,0,0,0,0,0,0,0,0,0,0,0,0,0,12,0,0,
0,0,0,0,0,0,0,0,0,0,0,0,0,0,0,0,0,0,0,0,0,0,0,0,0,0,0,0,0,0,0,0,0,0,0,0,0,0,0,0,0,0,0,0,0,0,0,12,0,0,
10,10,10,10,10,11,0,0,0,0,0,0,0,0,0,0,0,0,0,0,0,0,0,0,0,0,0,0,0,0,0,0,0,0,0,0,0,0,0,0,0,0,0,0,0,0,12,12,0,0,
18,18,18,18,18,41,10,10,10,10,10,10,10,11,0,0,0,0,0,0,0,0,0,0,0,0,0,0,0,0,0,0,0,3,0,0,0,0,0,0,0,0,0,0,0,0,12,0,0,0,
18,18,18,18,18,18,18,18,18,18,18,18,18,41,10,11,0,0,0,44,44,44,0,0,0,0,0,0,0,0,0,0,0,3,0,0,0,3,0,0,0,0,0,0,0,0,12,0,0,0,
26,26,34,18,18,18,18,18,18,18,18,18,18,18,18,41,10,11,0,44,44,44,0,0,0,0,0,0,0,0,0,0,0,3,3,3,3,3,3,3,0,0,0,0,0,0,12,0,0,0,
0,0,25,26,34,18,18,18,18,18,18,18,18,18,18,18,18,41,10,44,44,0,0,0,0,0,0,0,0,0,0,0,0,3,28,28,28,28,28,3,0,0,0,0,0,0,12,0,0,0,
0,0,0,0,17,26,34,18,18,18,18,18,18,18,18,18,18,44,44,44,44,11,0,0,0,0,0,0,0,0,0,0,0,3,28,28,28,28,28,3,0,0,0,0,0,0,12,0,0,0,
0,0,0,0,0,0,25,26,26,26,26,26,26,34,18,18,44,44,44,18,18,41,10,10,11,0,0,0,0,0,0,0,0,3,28,28,28,28,28,3,0,0,0,0,0,0,12,0,0,0,
0,0,0,0,0,0,0,0,0,0,0,0,0,25,34,44,44,44,18,18,18,18,18,18,41,10,10,11,0,0,0,0,0,3,28,28,28,28,28,3,0,0,0,0,0,0,12,0,0,0,
0,0,0,0,0,0,0,0,0,0,0,0,0,0,25,44,44,44,18,18,18,18,18,18,18,18,18,19,0,0,0,0,0,3,28,28,28,28,28,3,0,0,0,0,0,0,12,0,0,0,
0,0,0,0,0,0,0,0,0,0,0,0,0,0,44,44,44,26,34,18,18,18,18,18,18,18,18,41,11,0,0,0,0,3,28,28,28,28,3,3,0,0,0,0,0,0,12,0,0,0,
3,3,3,21,21,3,3,3,0,0,0,0,0,44,44,44,0,0,26,34,18,18,18,18,18,18,18,18,18,11,0,0,0,3,3,3,3,3,3,0,0,0,0,0,0,0,12,0,0,0,
28,28,28,28,28,28,28,3,0,0,0,0,0,0,44,0,0,0,0,17,18,18,18,18,18,18,18,18,18,41,11,0,0,3,3,0,0,0,0,0,0,0,0,0,0,0,12,0,0,0,
28,28,28,28,28,28,28,3,0,0,0,0,0,0,0,0,0,0,0,25,26,26,34,18,18,18,18,18,18,18,19,0,0,0,0,0,0,0,0,0,0,0,0,0,0,0,12,0,0,0,
28,28,28,28,28,28,28,3,0,0,0,0,0,0,0,0,0,0,0,0,0,0,17,18,18,18,18,18,18,18,41,11,0,0,0,0,0,0,0,0,0,0,0,0,0,0,12,0,0,0,
28,28,28,28,28,28,28,3,0,0,0,0,0,0,0,0,0,0,0,0,0,0,17,18,18,18,18,18,18,18,18,19,0,0,0,0,0,0,0,0,0,0,0,0,0,0,12,0,0,0,
28,28,28,28,28,28,28,3,0,0,0,0,0,0,0,0,0,0,0,0,0,0,17,18,18,18,18,18,18,18,18,19,0,0,0,0,0,0,0,0,0,0,0,0,0,0,12,0,0,0,
28,28,28,28,28,28,28,3,0,0,0,0,0,0,0,0,0,0,0,0,0,0,17,18,18,34,18,18,18,18,18,19,0,0,0,0,0,0,0,0,0,0,0,0,0,0,12,0,0,0,
28,28,28,28,28,3,3,3,0,0,0,0,0,0,0,0,0,0,0,0,0,0,25,26,26,34,18,18,18,18,18,41,11,0,0,0,0,0,0,0,0,0,0,0,0,0,12,0,0,0,
28,28,28,28,28,3,0,0,0,0,0,0,0,0,0,0,0,0,0,0,0,0,0,0,0,17,18,18,18,18,18,18,19,0,0,0,0,0,0,0,0,0,0,0,0,0,12,0,0,0,
3,3,3,3,3,3,0,0,0,0,0,0,0,0,0,0,0,0,0,0,0,0,0,0,0,17,18,18,18,18,18,18,19,0,0,0,0,0,0,0,0,0,0,0,0,0,12,0,0,0,
0,0,0,0,0,0,0,0,0,0,0,0,0,0,0,0,0,0,0,0,0,0,0,0,0,17,18,18,18,18,18,18,19,0,0,0,0,0,0,0,0,0,0,0,0,0,12,0,0,0,
0,0,0,0,0,0,0,0,0,0,0,0,0,0,0,0,0,0,0,0,0,0,0,0,0,25,34,18,18,18,18,18,19,0,0,0,0,0,0,0,0,0,0,0,0,0,12,0,0,0,
0,0,0,0,0,0,0,0,0,0,0,0,0,0,0,0,0,0,0,0,0,0,0,0,0,0,25,18,18,18,18,18,19,0,0,0,0,0,0,0,0,0,0,0,0,0,12,0,0,0
</data>
 </layer>
 <layer id="5" name="decoration" width="50" height="50">
  <data encoding="csv">
0,0,0,0,0,0,0,0,0,0,0,0,0,0,0,0,0,0,0,0,0,0,0,0,0,0,0,0,0,0,0,22,22,22,22,22,0,0,0,0,0,0,0,0,0,0,0,0,0,0,
0,0,0,0,0,0,0,0,0,0,0,0,0,0,0,0,0,0,0,0,0,0,0,0,0,0,0,22,22,22,22,0,0,0,0,0,22,22,22,0,0,0,0,0,0,0,0,0,0,0,
0,0,0,0,0,0,0,0,0,0,0,0,0,0,0,0,0,0,0,0,0,0,0,0,0,22,22,22,22,22,22,22,22,22,0,0,22,22,22,22,22,0,0,0,0,0,0,0,0,0,
0,0,0,0,0,0,0,0,0,0,0,0,0,0,0,0,0,0,0,0,0,0,0,0,22,22,0,58,57,22,22,22,22,22,0,22,22,0,0,0,22,0,0,0,0,0,0,0,0,0,
0,0,0,0,0,0,0,0,0,0,0,0,0,0,0,0,0,0,0,0,0,0,0,0,22,0,0,57,22,0,22,0,0,57,0,58,0,0,0,22,22,0,0,0,0,0,0,0,0,0,
0,0,0,0,0,0,0,0,0,0,0,0,0,0,0,0,0,0,0,0,0,0,0,0,22,0,0,57,22,22,22,0,0,57,0,0,0,0,0,22,0,0,0,0,0,0,0,0,0,0,
0,0,0,0,0,0,0,0,0,0,0,0,0,0,0,0,0,0,0,0,0,0,0,0,22,22,22,22,22,22,58,0,0,57,58,0,0,0,22,0,0,0,0,0,0,0,0,0,0,0,
0,0,0,0,0,0,0,0,0,0,0,0,0,0,0,0,0,0,0,0,0,0,0,0,0,0,0,0,0,0,22,22,57,57,0,22,22,22,0,0,0,0,0,0,0,0,0,0,0,0,
0,0,0,0,0,0,0,0,0,0,0,0,0,0,0,0,0,0,0,0,0,0,0,0,0,0,0,0,0,0,0,22,22,22,22,22,0,0,0,0,0,0,0,0,0,0,0,0,0,0,
0,0,0,0,0,0,0,0,0,0,0,0,0,0,0,0,0,0,0,0,0,0,0,0,0,0,0,0,0,0,0,0,0,0,0,0,0,0,0,0,0,0,0,0,0,0,0,0,0,0,
0,0,0,0,0,0,0,0,0,0,0,0,0,0,0,0,0,0,0,0,0,0,0,0,0,0,0,0,0,0,0,0,0,0,0,0,0,0,0,0,0,0,0,0,0,0,0,0,0,0,
0,0,0,0,0,0,0,0,0,0,0,0,0,0,0,0,0,0,0,0,0,0,0,0,0,0,0,0,0,0,0,0,0,0,0,0,0,0,0,0,0,0,0,0,0,0,0,0,0,0,
0,0,0,0,0,0,0,0,0,0,0,0,0,0,0,0,0,0,0,0,0,0,0,0,0,0,0,0,0,0,0,0,0,0,0,0,0,0,0,0,0,0,0,0,0,0,0,0,0,0,
0,0,0,0,0,0,0,0,0,0,0,0,0,0,0,0,0,0,0,0,0,0,0,0,0,0,0,43,0,0,0,61,0,0,0,0,0,0,0,0,0,0,0,0,0,0,0,0,0,0,
0,0,0,0,0,0,0,0,0,0,0,0,0,0,0,0,0,0,0,0,0,0,0,0,0,0,61,0,0,0,61,0,0,0,43,0,0,61,60,60,43,62,0,0,0,0,0,0,0,0,
0,0,0,0,0,0,0,0,0,0,0,0,0,0,0,0,0,0,0,0,0,0,0,0,0,0,0,0,0,0,0,0,43,0,0,61,0,0,0,0,0,0,0,0,0,0,0,0,0,0,
0,0,0,0,0,0,0,0,0,0,0,0,0,0,0,0,0,0,0,0,0,0,0,0,0,0,0,0,0,0,0,0,0,0,43,0,0,0,60,60,0,0,0,0,0,0,0,0,0,0,
0,0,0,0,0,0,0,0,0,0,0,0,0,0,0,0,0,0,0,0,0,0,0,0,0,0,0,0,0,0,0,0,0,0,0,0,0,0,60,60,0,0,0,0,0,0,0,0,0,0,
0,0,0,0,0,0,0,0,0,0,0,0,0,0,0,0,0,0,0,0,0,0,0,0,0,0,0,0,0,0,0,0,0,0,0,0,0,0,0,0,0,0,0,0,0,0,0,0,0,0,
0,0,0,0,0,0,0,0,0,0,0,0,0,0,0,0,0,0,0,0,0,0,0,0,0,0,0,0,0,0,0,0,0,0,0,0,0,0,0,0,0,0,0,0,0,0,0,0,0,0,
0,0,0,0,0,0,0,0,0,0,0,0,0,0,0,0,0,0,0,0,0,0,0,0,0,0,0,0,0,0,0,0,0,0,0,0,0,0,0,0,0,0,0,0,0,0,0,0,0,0,
0,0,0,0,0,0,0,0,0,0,0,0,0,0,0,0,0,0,0,0,0,0,0,0,0,0,0,0,0,0,0,0,0,0,0,0,0,0,0,0,0,0,0,0,0,0,54,0,0,0,
0,0,0,0,0,0,0,0,0,0,0,0,0,0,0,0,0,0,0,0,0,0,0,0,0,0,0,0,0,0,0,0,0,0,0,0,0,0,0,0,0,0,0,0,0,0,0,0,0,0,
0,0,0,0,0,0,0,0,0,0,0,0,0,0,0,0,0,0,0,0,0,0,0,0,0,0,0,0,0,0,0,0,0,0,0,0,0,0,0,0,0,0,0,0,0,0,0,0,0,0,
0,0,0,0,0,0,0,0,0,0,0,0,0,0,0,0,0,0,0,0,0,0,0,0,0,0,0,0,0,0,0,0,0,0,0,0,0,0,0,0,0,0,0,0,0,0,0,0,0,0,
0,0,0,0,0,0,0,0,0,0,0,0,0,0,0,0,0,0,0,0,0,0,0,0,0,0,0,0,0,0,0,0,0,0,0,0,0,0,0,0,0,0,0,0,0,0,0,0,0,0,
0,0,0,0,0,0,0,0,0,0,0,0,0,0,0,0,0,0,0,0,0,0,0,0,0,0,0,0,0,0,0,0,0,0,0,0,0,0,0,0,0,0,0,0,0,0,0,0,0,0,
0,0,0,0,0,0,0,0,0,0,0,0,0,0,0,0,0,0,0,0,0,0,0,0,0,0,0,0,0,0,0,0,0,0,0,0,0,0,0,0,0,0,0,0,0,0,0,0,0,0,
0,0,0,0,0,0,0,0,0,0,0,0,0,0,0,0,0,0,0,0,0,0,0,0,0,0,0,0,0,0,0,0,0,0,0,0,0,0,0,0,0,0,0,0,0,0,0,0,0,0,
0,0,0,0,0,0,0,0,0,0,0,0,0,0,0,0,0,0,0,0,0,0,0,0,0,0,0,0,0,0,0,0,0,0,0,0,0,0,0,0,0,0,0,0,0,0,0,0,0,0,
0,0,0,0,0,0,0,0,0,0,0,0,0,0,0,0,0,0,0,0,0,0,0,0,0,0,0,0,0,0,0,0,0,0,0,0,0,0,0,0,0,0,0,0,0,0,0,0,0,0,
0,0,0,0,0,0,0,0,0,0,0,0,0,0,0,0,0,0,0,0,0,0,0,0,0,0,0,0,0,0,0,0,0,0,0,0,0,0,0,0,0,0,0,0,0,0,0,0,0,0,
0,0,0,0,0,0,0,0,0,0,0,0,0,0,0,0,0,0,0,0,0,0,0,0,0,0,0,0,0,0,0,0,0,0,0,0,0,0,0,0,0,0,0,0,0,0,0,0,0,0,
0,0,0,0,0,0,0,0,0,0,0,0,0,0,0,0,0,0,0,0,0,0,0,0,0,0,0,0,0,0,0,0,0,0,0,0,0,0,0,0,0,0,0,0,0,0,0,0,0,0,
0,0,0,0,0,0,0,0,0,0,0,0,0,0,0,0,0,0,0,0,0,0,0,0,0,0,0,0,0,0,0,0,0,0,0,0,0,0,0,0,0,0,0,0,0,0,0,0,0,0,
0,0,0,0,0,0,0,0,0,0,0,0,0,0,0,0,0,0,0,0,0,0,0,0,0,0,0,0,0,0,0,0,0,0,0,0,0,0,0,0,0,0,0,0,0,0,0,0,0,0,
0,0,0,0,0,0,0,0,0,0,0,0,0,0,0,0,0,0,0,0,0,0,0,0,0,0,0,0,0,0,0,0,0,0,0,0,0,0,0,0,0,0,0,0,0,0,0,0,0,0,
0,0,0,0,0,0,0,0,0,0,0,0,0,0,0,0,0,0,0,0,0,0,0,0,0,0,0,0,0,0,0,0,0,0,0,0,0,0,0,0,0,0,0,0,0,0,0,0,0,0,
0,0,0,0,0,0,0,0,0,0,0,0,0,0,0,0,0,0,0,0,0,0,0,0,0,0,0,0,0,0,0,0,0,0,0,0,0,0,0,0,0,0,0,0,0,0,0,0,0,0,
0,0,0,0,0,0,0,0,0,0,0,0,0,0,0,0,0,0,0,0,0,0,0,0,0,0,0,0,0,0,0,0,0,0,0,0,0,0,0,0,0,0,0,0,0,0,0,0,0,0,
0,0,0,0,0,0,0,0,0,0,0,0,0,0,0,0,0,0,0,0,0,0,0,0,0,0,0,0,0,0,0,0,0,0,0,0,0,0,0,0,0,0,0,0,0,0,0,0,0,0,
0,0,0,0,0,0,0,0,0,0,0,0,0,0,0,0,0,0,0,0,0,0,0,0,0,0,0,0,0,0,0,0,0,0,0,0,0,0,0,0,0,0,0,0,0,0,0,0,0,0,
0,0,0,0,0,0,0,0,0,0,0,0,0,0,0,0,0,0,0,0,0,0,0,0,0,0,0,0,0,0,0,0,0,0,0,0,0,0,0,0,0,0,0,0,0,0,0,0,0,0,
0,0,0,0,0,0,0,0,0,0,0,0,0,0,0,0,0,0,0,0,0,0,0,0,0,0,0,0,0,0,0,0,0,0,0,0,0,0,0,0,0,0,0,0,0,0,0,0,0,0,
0,0,0,0,0,0,0,0,0,0,0,0,0,0,0,0,0,0,0,0,0,0,0,0,0,0,0,0,0,0,0,0,0,0,0,0,0,0,0,0,0,0,0,0,0,0,0,0,0,0,
0,0,0,0,0,0,0,0,0,0,0,0,0,0,0,0,0,0,0,0,0,0,0,0,0,0,0,0,0,0,0,0,0,0,0,0,0,0,0,0,0,0,0,0,0,0,0,0,0,0,
0,0,0,0,0,0,0,0,0,0,0,0,0,0,0,0,0,0,0,0,0,0,0,0,0,0,0,0,0,0,0,0,0,0,0,0,0,0,0,0,0,0,0,0,0,0,0,0,0,0,
0,0,0,0,0,0,0,0,0,0,0,0,0,0,0,0,0,0,0,0,0,0,0,0,0,0,0,0,0,0,0,0,0,0,0,0,0,0,0,0,0,0,0,0,0,0,0,0,0,0,
0,0,0,0,0,0,0,0,0,0,0,0,0,0,0,0,0,0,0,0,0,0,0,0,0,0,0,0,0,0,0,0,0,0,0,0,0,0,0,0,0,0,0,0,0,0,0,0,0,0,
0,0,0,0,0,0,0,0,0,0,0,0,0,0,0,0,0,0,0,0,0,0,0,0,0,0,0,0,0,0,0,0,0,0,0,0,0,0,0,0,0,0,0,0,0,0,0,0,0,0
</data>
 </layer>
 <objectgroup id="6" name="objects">
  <object id="1" name="start" x="222" y="690">
   <point/>
  </object>
 </objectgroup>
</map>
